sidecars/P1036170_bw.pp3
# per-image override for P1036170 [bw] — layered over config/styles/bw.pp3
# Dusk frame is flat in mono; lift exposure and add a gentle S-curve for
# facial tonal separation without crushing the shadowed sand.

[Exposure]
Compensation=0.15
CurveMode=Standard
Curve=1;0;0;0.25;0.21;0.75;0.79;1;1;
