config/styles/bw.pp3
[Version]
AppVersion=5.12
Version=352

[White Balance]
Setting=Camera

[Exposure]
Auto=false
Compensation=0
HistogramMatching=true

[Vibrance]
Enabled=true
Pastels=12
Saturated=6
ProtectSkins=true
AvoidColorShift=true

[HLRecovery]
Enabled=true
Method=Coloropp

[LensProfile]
LcMode=none

[Color Management]
OutputProfile=RTv4_sRGB

[Black & White]
Enabled=true
Method=ChannelMixer
Setting=RGB-Rel
MixerRed=28
MixerGreen=52
MixerBlue=20
